X: 49
T:Flowers of Brooklyn, The
M:C|
C:Bill McComiskey
R:reel
D:Kevin Crawford: D flute album
Z:Henrik Norbeck
K:G
B2AB GEED|cAAG FAdc|Bg~g2 edcB|AF~F2 dBBA|
B2AB GEED|cAAG FAdc|Bg~g2 ecAF|GBAF ~G3z:|
|:dg~g2 agfg|ea~a2 c'a~a2|ge~e2 dGBd|cAAG FAdc|
[1 dg~g2 agfg|ea~a2 c'a~a2|gbag fdcA|GBAF ~G3z:|
[2 B2AB GEED|cAAG FAdc|Bg~g2 ecAF|GBAF ~G3z||
<end>
<start>
